X: 159
T:Esik Eso
O:Hungarian
L:1/8
M:2/4
Q:1/4=140
K:C
 "C"C2 C2    | "F"F4   | "C"E2 E2   | G4         |\
 "F"FE "G"D2 | DE"F"FG | "C"ED C2   | C4         |
 G2 G2       | c4      | "G"B2 B2   | d4         |\
 "C"cB "F"A2 | AB "C"cd| "G"BA "C"G2| G4         | 
 "C"G2 G2    | c4      | "G"B2 B2   | d4         |\
 "F"F2 F2    | A4      | "C"G2 c2   | "G"B2 "F"A2|
 "F"FE "G"D2 | DE"F"FG | "C"ED C2   | C4         |



